rospo-light/16x16/actions/format-remove-node.svg

<svg height="16" viewBox="0 0 16 16" width="16" xmlns="http://www.w3.org/2000/svg"><path d="m5 2v2h-4v1h4v3h6v-3h4v-1h-4v-2zm5.833984 7-.833984.8339844 1.666016 1.6660156-1.666016 1.666016.833984.833984 1.666016-1.666016 1.666016 1.666016.833984-.833984-1.666016-1.666016 1.666016-1.6660156-.833984-.8339844-1.666016 1.666016z" fill="#5c616c"/></svg>

<?xml version="1.0" encoding="UTF-8" standalone="no"?>
<svg xmlns="http://www.w3.org/2000/svg" width="22" height="22" viewBox="0 0 22 22">
 <defs>
  <style type="text/css" id="current-color-scheme">
   .ColorScheme-Text { color:#5c616c; } .ColorScheme-Highlight { color:#5294e2; }
  </style>
 </defs>
 <path style="fill:currentColor;opacity:1" class="ColorScheme-Text" transform="translate(3 3)" d="M 5 2 L 5 4 L 1 4 L 1 5 L 5 5 L 5 8 L 11 8 L 11 5 L 15 5 L 15 4 L 11 4 L 11 2 L 5 2 z M 10.833984 9 L 10 9.8339844 L 11.666016 11.5 L 10 13.166016 L 10.833984 14 L 12.5 12.333984 L 14.166016 14 L 15 13.166016 L 13.333984 11.5 L 15 9.8339844 L 14.166016 9 L 12.5 10.666016 L 10.833984 9 z"/>
</svg>
